X:347
T:Irish Washerwoman,The. RH.347
R:jig
S:Rev.R.Harrison’s MS,c1815,Cumbria
O:England
A:Temple Sowerby,Cumbria
Z:vmp.Simon Wilson. Review PJH, 2008.
M:6/8
L:1/8
Q:3/8=120
K:G
d/c/|BGG DGG|BGB dcB|cAA EAA|cAc edc|\
BGG DGG|BGB dcB|cBc Adc|BGG G2:|!
|:g|gdg gdg|gdg bag|”sic”=fcf fcf|=fcf agf|\
egg dgg|cgg Bgg|cAc Adc|BGG G2:|

